communes/3762.svg

<?xml version="1.0" encoding="UTF-8"?>
<!DOCTYPE svg  PUBLIC '-//W3C//DTD SVG 1.1//EN'  'http://www.w3.org/Graphics/SVG/1.1/DTD/svg11.dtd'>
<svg width="438" height="480" viewBox="21 15 438 480" xmlns="http://www.w3.org/2000/svg">
<metadata>
<rdf:RDF xmlns:dc="http://purl.org/dc/elements/1.1/" xmlns:rdf="http://www.w3.org/1999/02/22-rdf-syntax-ns#">
<rdf:Description dc:date="2006-10-30" dc:format="image/svg+xml" dc:language="de" dc:title="Wappen Scuol (CH-GR)">
<dc:creator rdf:resource="http://de.wikipedia.org/wiki/Benutzer:Bernina"/>
</rdf:Description>
</rdf:RDF>
</metadata>
<title>Wappen Scuol (CH-GR)</title>
<defs>
<clipPath id="a">
<path d="m360 4140a3240 3240 0 0 0 6480 0v-3870h-6480v3870z"/>
</clipPath>
<style type="text/css"><![CDATA[
  .Rand1 { stroke: #202020; stroke-width:15; }
  .Rand2 { stroke: #202020; stroke-width:30; }
  .Rand6 { stroke: #202020; stroke-width:90; }
  .Rand2Hell { stroke: #ffffff; stroke-width:30; }
  .Wasser { stroke: #ffffff; stroke-width:75; }
  .Schwarz { fill: #000000; }
  .Blau { fill: #0000ff; }
  .Gold { fill: #ffef00; }
  .Silber { fill: #ffffff; }
  ]]></style>
</defs>
<g transform="scale(.066667)" fill="none" fill-rule="evenodd" stroke-miterlimit="10" stroke-width="10">
<g clip-path="url(#a)">
<path class="Gold" d="m-225-225v7650h7650v-7650h-7650z"/>
<path class="Blau Rand1" d="m1890 4770c120-780 240-1560 405-1965s375-435 570-315 375 390 465 720 90 720 90 1110h180c15-210 30-420 30-652 0-233-15-488-112-743-98-255-278-510-488-637-210-128-450-128-660-23s-390 315-540 750-270 1095-390 1755h450z"/>
<path class="Blau Rand1" d="m5310 4770h450c-120-660-240-1320-390-1755s-330-645-540-750-450-105-660 23c-210 127-390 382-488 637-97 255-112 510-112 743 0 232 15 442 30 652h180c0-390 0-780 90-1110s270-600 465-720 405-90 570 315 285 1185 405 1965z"/>
<path class="Wasser" d="m3600 4230c0-330 0-660 98-990 97-330 292-660 510-818 217-157 457-142 644 23 188 165 323 480 428 893 105 412 180 922 255 1432"/>
<path class="Wasser" d="m3600 4230c0-330 0-660-98-990-97-330-292-660-510-818-217-157-457-142-644 23-188 165-323 480-428 893-105 412-180 922-255 1432"/>
<path class="Blau Rand1" d="m3780 4320c-30-600-60-1200-60-1725s30-975 60-1260 60-405 120-465 150-60 225 300 135 1080 165 1740 30 1260 30 1860h450c-60-900-120-1800-210-2505s-210-1215-345-1470-285-255-390-180-165 225-225 375c-60-150-120-300-225-375s-255-75-390 180-255 765-345 1470-150 1605-210 2505h450c0-600 0-1200 30-1860s90-1380 165-1740 165-360 225-300 90 180 120 465 60 735 60 1260-30 1125-60 1725h360z"/>
<path class="Wasser" d="m3600 1620c0-120 0-240 38-390 37-150 112-330 194-435 83-105 173-135 270 30 98 165 203 525 278 1215s120 1710 165 2730"/>
<path class="Wasser" d="m3600 1620c0-120 0-240-38-390-37-150-112-330-194-435-83-105-173-135-270 30-98 165-203 525-278 1215s-120 1710-165 2730"/>
<path class="Silber Rand2Hell" d="m3510 4230h180c-30-210-60-420-75-675s-15-555-15-855c0 300 0 600-15 855s-45 465-75 675z"/>
<path class="Silber Rand2Hell" d="m3555 1350c15 180 30 360 37 488 8 127 8 202 8 277 0-75 0-150 8-277 7-128 22-308 37-488h-90z"/>
<path class="Schwarz Rand2" d="m3510 4815h180v-405l90-90v-90h-140v-180h-80v180h-140v90l90 90v405z"/>
<path class="Schwarz Rand2" d="m900 5040h450c255 165 510 330 742 480 233 150 443 285 616 368 172 82 307 112 442 142v270c-120 30-240 60-360 98-120 37-240 82-300 134-60 53-60 113-60 173v135h2340v-135c0-60 0-120-60-173-60-52-180-97-300-134-120-38-240-68-360-98v-270c135-30 270-60 442-142 173-83 383-218 616-368 232-150 487-315 742-480h450c0-60 0-120-60-165s-180-75-262-90c-83-15-128-15-886-15h-2984c-758 0-803 0-886 15-82 15-202 45-262 90s-60 105-60 165z"/>
<path class="Rand2Hell" d="m3150 6300h900"/>
<path class="Rand2Hell" d="m3150 6030h900"/>
<path class="Rand2Hell" d="m1350 5050h4500"/>
</g>
<path class="Rand6" d="m360 4140a3240 3240 0 0 0 6480 0v-3870h-6480v3870z"/>
</g>
</svg>

<?xml version="1.0" encoding="iso-8859-1"?>
<!DOCTYPE svg PUBLIC "-//W3C//DTD SVG 1.1//EN" "http://www.w3.org/Graphics/SVG/1.1/DTD/svg11.dtd">
<!-- Auto-generated by fig2svg tool
     Date: Mon Oct 30 16:44:22 2006 -->
<svg xmlns="http://www.w3.org/2000/svg"
     width="438" height="480" viewBox="21 15 438 480">
<metadata>
<rdf:RDF xmlns:rdf="http://www.w3.org/1999/02/22-rdf-syntax-ns#"
         xmlns:dc="http://purl.org/dc/elements/1.1/">
<rdf:Description
 dc:title="Wappen Scuol (CH-GR)"
 dc:date="2006-10-30"
 dc:format="image/svg+xml"
 dc:language="de">
<dc:creator rdf:resource="http://de.wikipedia.org/wiki/Benutzer:Bernina" />
</rdf:Description>
</rdf:RDF>
</metadata>
<title>
Wappen Scuol (CH-GR)
</title>
<defs>
<clipPath id="clippath">
<path d="M360,4140 A3240,3240 0.0 0 0 6840,4140 L6840,270 L360,270 L360,4140 Z" />
</clipPath>
<style type="text/css">
  <![CDATA[
  .Rand1 { stroke: #202020; stroke-width:15; }
  .Rand2 { stroke: #202020; stroke-width:30; }
  .Rand6 { stroke: #202020; stroke-width:90; }
  .Rand2Hell { stroke: #ffffff; stroke-width:30; }
  .Wasser { stroke: #ffffff; stroke-width:75; }
  .Schwarz { fill: #000000; }
  .Blau { fill: #0000ff; }
  .Gold { fill: #ffef00; }
  .Silber { fill: #ffffff; }
  ]]>
</style>
</defs>
<g stroke="none" stroke-miterlimit="10" stroke-width="10"
   stroke-linecap="butt" stroke-linejoin="miter"
   fill="none" fill-rule="evenodd" transform="scale(0.066667)">
<g clip-path="url(#clippath)">
<path id="feld-1" class="Gold"
      d="M-225,-225 L-225,7425 L7425,7425 L7425,-225 L-225,-225 Z" />
<path id="wasser1b-1" class="Blau Rand1"
      d="M1890,4770 C2010,3990 2130,3210 2295,2805
         C2460,2400 2670,2370 2865,2490 C3060,2610 3240,2880 3330,3210
         C3420,3540 3420,3930 3420,4320 L3600,4320
         C3615,4110 3630,3900 3630,3668 C3630,3435 3615,3180 3518,2925
         C3420,2670 3240,2415 3030,2288 C2820,2160 2580,2160 2370,2265
         C2160,2370 1980,2580 1830,3015 C1680,3450 1560,4110 1440,4770
         L1890,4770 Z" />
<path id="wasser1b-2" class="Blau Rand1"
      d="M5310,4770 L5760,4770 C5640,4110 5520,3450 5370,3015
         C5220,2580 5040,2370 4830,2265 C4620,2160 4380,2160 4170,2288
         C3960,2415 3780,2670 3682,2925 C3585,3180 3570,3435 3570,3668
         C3570,3900 3585,4110 3600,4320 L3780,4320
         C3780,3930 3780,3540 3870,3210 C3960,2880 4140,2610 4335,2490
         C4530,2370 4740,2400 4905,2805 C5070,3210 5190,3990 5310,4770 Z" />
<path id="wasser1s-1" class="Wasser"
      d="M3600,4230 C3600,3900 3600,3570 3698,3240
         C3795,2910 3990,2580 4208,2422 C4425,2265 4665,2280 4852,2445
         C5040,2610 5175,2925 5280,3338 C5385,3750 5460,4260 5535,4770" />
<path id="wasser1s-2" class="Wasser"
      d="M3600,4230 C3600,3900 3600,3570 3502,3240
         C3405,2910 3210,2580 2992,2422 C2775,2265 2535,2280 2348,2445
         C2160,2610 2025,2925 1920,3338 C1815,3750 1740,4260 1665,4770" />
<path id="wasser2b-1" class="Blau Rand1"
      d="M3780,4320 C3750,3720 3720,3120 3720,2595
         C3720,2070 3750,1620 3780,1335 C3810,1050 3840,930 3900,870
         C3960,810 4050,810 4125,1170 C4200,1530 4260,2250 4290,2910
         C4320,3570 4320,4170 4320,4770 L4770,4770
         C4710,3870 4650,2970 4560,2265 C4470,1560 4350,1050 4215,795
         C4080,540 3930,540 3825,615 C3720,690 3660,840 3600,990
         C3540,840 3480,690 3375,615 C3270,540 3120,540 2985,795
         C2850,1050 2730,1560 2640,2265 C2550,2970 2490,3870 2430,4770
         L2880,4770 C2880,4170 2880,3570 2910,2910
         C2940,2250 3000,1530 3075,1170 C3150,810 3240,810 3300,870
         C3360,930 3390,1050 3420,1335 C3450,1620 3480,2070 3480,2595
         C3480,3120 3450,3720 3420,4320 L3780,4320 Z" />
<path id="wasser2s-1" class="Wasser"
      d="M3600,1620 C3600,1500 3600,1380 3638,1230 C3675,1080 3750,900 3832,795
         C3915,690 4005,660 4102,825 C4200,990 4305,1350 4380,2040
         C4455,2730 4500,3750 4545,4770" />
<path id="wasser2s-2" class="Wasser"
      d="M3600,1620 C3600,1500 3600,1380 3562,1230 C3525,1080 3450,900 3368,795
         C3285,690 3195,660 3098,825 C3000,990 2895,1350 2820,2040
         C2745,2730 2700,3750 2655,4770" />
<path id="wasser2ss-1" class="Silber Rand2Hell"
      d="M3510,4230 L3690,4230 C3660,4020 3630,3810 3615,3555
         C3600,3300 3600,3000 3600,2700 C3600,3000 3600,3300 3585,3555
         C3570,3810 3540,4020 3510,4230 Z" />
<path id="wasser2ss-2" class="Silber Rand2Hell"
      d="M3555,1350 C3570,1530 3585,1710 3592,1838
         C3600,1965 3600,2040 3600,2115 C3600,2040 3600,1965 3608,1838
         C3615,1710 3630,1530 3645,1350 L3555,1350 Z" />
<path id="brunnen-1" class="Schwarz Rand2"
      d="M3510,4815 L3690,4815 L3690,4410 L3780,4320 L3780,4230 L3640,4230
         L3640,4050 L3560,4050 L3560,4230 L3420,4230 L3420,4320 L3510,4410
         L3510,4815 Z" />
<path id="brunnen-2" class="Schwarz Rand2"
      d="M900,5040 L1350,5040 C1605,5205 1860,5370 2092,5520
         C2325,5670 2535,5805 2708,5888 C2880,5970 3015,6000 3150,6030
         L3150,6300 C3030,6330 2910,6360 2790,6398
         C2670,6435 2550,6480 2490,6532 C2430,6585 2430,6645 2430,6705
         L2430,6840 L4770,6840 L4770,6705 C4770,6645 4770,6585 4710,6532
         C4650,6480 4530,6435 4410,6398 C4290,6360 4170,6330 4050,6300
         L4050,6030 C4185,6000 4320,5970 4492,5888
         C4665,5805 4875,5670 5108,5520 C5340,5370 5595,5205 5850,5040
         L6300,5040 C6300,4980 6300,4920 6240,4875
         C6180,4830 6060,4800 5978,4785 C5895,4770 5850,4770 5092,4770
         C4335,4770 2865,4770 2108,4770 C1350,4770 1305,4770 1222,4785
         C1140,4800 1020,4830 960,4875 C900,4920 900,4980 900,5040 Z" />
<path id="brunnen-linie-1" class="Rand2Hell" d="M3150,6300 L4050,6300" />
<path id="brunnen-linie-2" class="Rand2Hell" d="M3150,6030 L4050,6030" />
<path id="brunnen-linie-3" class="Rand2Hell" d="M1350,5050 L5850,5050" />
</g>
<path id="clip-boundary" class="Rand6"
      d="M360,4140 A3240,3240 0.0 0 0 6840,4140 L6840,270 L360,270 L360,4140 Z" />
</g>
</svg>
